X: 507
T: Zao xikao
%%abc-version 2.0
%%abcx-abcm2ps-target-version 5.9.1 (29 Sep 2008)
%%abc-creator hum2abc beta
%%abcx-conversion-date 2013/10/02 07:52:30
%%abc-edited-by Helmut Schaffrath
%%humdrum-veritas 528526206
%%humdrum-veritas-data 853816875
%%continueall 1
%%barnumbers 0
L: 1/16
M: 2/4
K: F
c2 c A f g f d [I:setbarnb 1]| 
c2> d2 A2 G2 | 
f g f d c d A G | 
F2 G A D2 C2 | 
G Ac4f d | 
c d A G F D F G | 
A G A c G A F D | 
C2> D2C4 |]  



